X:67
T:Trip to Sligo. JJo8.067
B:J.Johnson Choice Collection Vol 8 1758
Z:vmp.Simon Wilson 2013 www.village-music-project.org.uk
M:6/8
L:1/8
Q:3/8=120
K:G
DGG DGG|DGG A2G|gdd ecc|dAc BAG|
DGG DGG|DGG"^tr"A2G|gdd ecc|BGGG3:|
|:Bdd dbb|dcB"^tr"c2B|Acc caa|cBAB2A|
BGG EGG|DGG"^tr"A2G|gdd ecc|BGGG3:|

